flaticon/files-and-folders/files-25.svg

<svg xmlns="http://www.w3.org/2000/svg" width="32" height="32" viewBox="0 0 24 24">
    <path d="M 22.398438 8.789062 L 20.707031 8.789062 L 21.039062 7.871094 C 21.519531 6.550781 20.839844 5.109375 19.519531 4.628906 L 7.121094 0.109375 C 6.679688 -0.0507812 6.160156 -0.0117188 5.71875 0.1875 C 5.28125 0.390625 4.921875 0.75 4.761719 1.230469 L 3.460938 4.789062 L 3.199219 4.789062 C 2.320312 4.789062 1.601562 5.507812 1.601562 6.390625 L 1.601562 8.789062 C 0.71875 8.789062 0 9.507812 0 10.390625 L 0 22.390625 C 0 23.269531 0.71875 23.988281 1.601562 23.988281 L 22.398438 23.988281 C 23.28125 23.988281 24 23.269531 24 22.390625 L 24 10.390625 C 24 9.507812 23.28125 8.789062 22.398438 8.789062 Z M 5.480469 1.46875 C 5.601562 1.1875 5.800781 0.988281 6.039062 0.871094 C 6.28125 0.75 6.558594 0.75 6.839844 0.828125 L 19.238281 5.347656 C 20.160156 5.710938 20.601562 6.710938 20.28125 7.589844 L 19.839844 8.789062 L 14.203125 8.789062 L 13.804688 8.234375 L 13.214844 7.40625 L 15.480469 8.230469 C 15.519531 8.269531 15.558594 8.269531 15.601562 8.269531 C 15.761719 8.269531 15.921875 8.148438 16 7.988281 C 16.078125 7.789062 15.960938 7.550781 15.761719 7.46875 L 12.390625 6.242188 L 11.441406 4.910156 C 11.359375 4.828125 11.238281 4.75 11.121094 4.75 L 9.601562 4.75 C 9.558594 4.75 9.558594 4.75 9.519531 4.75 L 4.28125 4.75 Z M 2.398438 6.390625 C 2.398438 5.949219 2.761719 5.589844 3.199219 5.589844 L 10.878906 5.589844 L 13.199219 8.789062 L 2.398438 8.789062 Z M 23.199219 22.390625 C 23.199219 22.828125 22.839844 23.1875 22.398438 23.1875 L 1.601562 23.1875 C 1.160156 23.1875 0.800781 22.828125 0.800781 22.390625 L 0.800781 10.390625 C 0.800781 9.949219 1.160156 9.589844 1.601562 9.589844 L 22.398438 9.589844 C 22.839844 9.589844 23.199219 9.949219 23.199219 10.390625 Z M 23.199219 22.390625"/>
    <path d="M18.839844 7.308594C19 7.308594 19.160156 7.230469 19.199219 7.03125 19.28125 6.828125 19.160156 6.589844 18.960938 6.507812L6.921875 2.148438C6.71875 2.070312 6.480469 2.1875 6.398438 2.390625 6.320312 2.589844 6.441406 2.828125 6.640625 2.910156L18.71875 7.269531C18.761719 7.308594 18.800781 7.308594 18.839844 7.308594zM7.601562 11.1875L2.800781 11.1875C2.558594 11.1875 2.398438 11.347656 2.398438 11.589844 2.398438 11.828125 2.558594 11.988281 2.800781 11.988281L7.601562 11.988281C7.839844 11.988281 8 11.828125 8 11.589844 8 11.347656 7.839844 11.1875 7.601562 11.1875zM7.601562 12.789062L2.800781 12.789062C2.558594 12.789062 2.398438 12.949219 2.398438 13.1875 2.398438 13.429688 2.558594 13.589844 2.800781 13.589844L7.601562 13.589844C7.839844 13.589844 8 13.429688 8 13.1875 8 12.949219 7.839844 12.789062 7.601562 12.789062zM7.601562 12.789062"/>
</svg>

<svg xmlns="http://www.w3.org/2000/svg" width="32" height="32" viewBox="0 0 24 24">
    <path d="M22.398 8.79h-1.691l.332-.919c.48-1.32-.2-2.762-1.52-3.242L7.122.109c-.441-.16-.96-.12-1.402.079a1.778 1.778 0 0 0-.957 1.042L3.46 4.79h-.262c-.879 0-1.597.718-1.597 1.6v2.4C.719 8.79 0 9.507 0 10.39v12c0 .88.719 1.598 1.602 1.598h20.796c.883 0 1.602-.718 1.602-1.597v-12c0-.883-.719-1.602-1.602-1.602zM5.48 1.468c.122-.282.32-.48.56-.598.241-.121.519-.121.8-.043l12.398 4.52c.922.363 1.364 1.363 1.043 2.242l-.441 1.2h-5.637l-.398-.556-.59-.828 2.265.824c.04.04.079.04.122.04.16 0 .32-.122.398-.282.078-.199-.04-.437-.238-.52L12.39 6.243l-.95-1.332c-.082-.082-.203-.16-.32-.16h-6.84zM2.398 6.39c0-.442.364-.801.801-.801h7.68l2.32 3.2H2.4zm20.801 16c0 .437-.36.797-.8.797H1.601c-.442 0-.801-.36-.801-.797v-12c0-.442.36-.801.8-.801h20.797c.442 0 .801.36.801.8zm0 0"/>
    <path d="M18.84 7.309c.16 0 .32-.079.36-.278.081-.203-.04-.441-.24-.523L6.923 2.148c-.203-.078-.442.04-.524.243-.078.199.043.437.243.52L18.719 7.27c.043.039.082.039.12.039zm0 0M7.602 11.188H2.8c-.242 0-.403.16-.403.402 0 .238.16.398.403.398h4.8c.239 0 .399-.16.399-.398 0-.242-.16-.402-.398-.402zm0 0M7.602 12.79H2.8c-.242 0-.403.16-.403.398 0 .242.16.402.403.402h4.8c.239 0 .399-.16.399-.402 0-.239-.16-.399-.398-.399zm0 0"/>
</svg>
